TV/Source/Food TV - Dark.svg

<svg height="6.016625mm" viewBox="0 0 72.246624 21.31875" width="20.389603mm" xmlns="http://www.w3.org/2000/svg" xmlns:xlink="http://www.w3.org/1999/xlink"><clipPath id="a"><path d="m480.614 659.622h82.8v24.803h-82.8z"/></clipPath><g clip-path="url(#a)" transform="matrix(1.25 0 0 -1.25 -616.3945 850.68912)"><g transform="translate(493.1156 671.9023)"><path d="m0 0h1.668c.078 0 .152-.034.201-.093.051-.059.071-.138.058-.214l-1.371-8.099c4.344.049 4.766 2.085 4.77 2.106l.99 6.084c.022.125.131.216.259.216h2.156l.525 2.994h-2.131c-.077 0-.15.033-.201.092-.05.059-.071.136-.058.212l.044.262c.095.504.257.923.482 1.25.257.372.693.561 1.296.561.193 0 .386-.02.572-.06.063-.014.123-.029.181-.045l.68 3.149c-.219.07-.482.123-.783.16-.413.049-.787.074-1.112.074-1.002 0-1.85-.137-2.52-.406-.664-.268-1.214-.635-1.632-1.092-.423-.461-.754-1.002-.983-1.608-.235-.625-.42-1.293-.548-1.986l-.066-.35c-.024-.124-.133-.213-.259-.213h-1.693z" fill="#221b21"/></g><g transform="translate(530.9932 667.0455)"><path d="m0 0c-.646 0-1.151.19-1.502.564-.346.368-.521.824-.521 1.356 0 .378.056.734.168 1.056.112.327.28.623.498.881.223.261.493.467.805.614s.668.221 1.058.221c.63 0 1.127-.185 1.478-.55.347-.362.524-.823.524-1.37 0-.363-.061-.716-.181-1.048-.12-.335-.292-.634-.508-.889-.221-.26-.487-.466-.791-.613-.306-.147-.652-.222-1.028-.222m-.11 8.079c-.88 0-1.707-.182-2.461-.542-.757-.362-1.417-.855-1.963-1.466-.549-.614-.984-1.347-1.293-2.178-.31-.833-.467-1.732-.467-2.671 0-.653.095-1.272.283-1.84.186-.56.468-1.055.839-1.47.368-.414.831-.744 1.373-.983.543-.239 1.185-.36 1.907-.36.779 0 1.463.135 2.033.402.568.265 1.012.602 1.323 1.003.05.065.126.102.208.102h.044c.092 0 .176-.046.224-.123.005-.008.763-1.093 3.758-1.1l2.835 15.986c-4.362-.017-4.74-2.084-4.754-2.172l-.637-3.638c-.022-.125-.132-.216-.259-.216h-.045c-.086 0-.166.042-.215.112-.115.164-.273.32-.468.462-.201.147-.427.272-.672.374-.246.102-.511.181-.787.236-.275.055-.547.082-.806.082" fill="#221b21"/></g><g transform="translate(518.7696 667.0455)"><path d="m0 0c-.631 0-1.125.186-1.469.553-.338.36-.51.82-.51 1.367 0 .363.057.714.168 1.044.112.336.281.634.502.886.219.249.483.453.782.606.308.157.656.236 1.033.236.647 0 1.149-.19 1.493-.565.338-.369.509-.825.509-1.355 0-.376-.057-.731-.168-1.056-.113-.326-.276-.621-.486-.877-.214-.262-.482-.47-.795-.617-.314-.148-.67-.222-1.059-.222m.661 8.167c-1.104 0-2.095-.181-2.946-.537-.85-.355-1.575-.846-2.156-1.456-.582-.613-1.034-1.34-1.342-2.161-.31-.825-.467-1.714-.467-2.639 0-.785.153-1.488.456-2.088.303-.601.729-1.115 1.267-1.526.544-.415 1.188-.73 1.915-.939.736-.21 1.54-.317 2.392-.317 1.119 0 2.125.18 2.991.537.865.356 1.601.846 2.188 1.456.589.613 1.044 1.339 1.352 2.161.311.825.468 1.713.468 2.638 0 .784-.157 1.486-.467 2.087-.31.602-.741 1.116-1.279 1.527-.543.415-1.193.73-1.935.939-.751.21-1.571.318-2.437.318" fill="#221b21"/></g><g transform="translate(506.4733 667.0455)"><path d="m0 0c-.631 0-1.126.186-1.469.553-.338.361-.51.821-.51 1.367 0 .361.056.713.167 1.044.113.336.282.634.503.886.219.249.482.453.782.606.308.157.655.236 1.033.236.646 0 1.148-.19 1.493-.565.337-.369.509-.825.509-1.355 0-.377-.057-.732-.169-1.056-.112-.326-.275-.622-.485-.878-.214-.261-.482-.469-.795-.616-.313-.148-.67-.222-1.059-.222m.66 8.167c-1.103 0-2.094-.181-2.945-.537-.85-.355-1.575-.845-2.156-1.456-.582-.612-1.033-1.339-1.342-2.161-.31-.825-.467-1.713-.467-2.639 0-.785.153-1.488.456-2.088.303-.602.729-1.115 1.267-1.526.544-.415 1.188-.73 1.915-.939.735-.21 1.54-.317 2.392-.317 1.118 0 2.125.18 2.991.537.865.356 1.601.846 2.188 1.456.589.613 1.044 1.339 1.352 2.161.31.825.468 1.713.468 2.638 0 .784-.157 1.486-.467 2.087-.31.602-.741 1.116-1.279 1.527-.543.415-1.194.731-1.936.939-.75.21-1.57.318-2.437.318" fill="#221b21"/></g><g transform="translate(544.7989 675.2075)"><path d="m0 0c-1.102 0-2.093-.18-2.944-.536-.849-.355-1.573-.845-2.153-1.456-.582-.612-1.033-1.339-1.342-2.16-.31-.825-.467-1.712-.467-2.637 0-.785.154-1.487.457-2.087.302-.601.728-1.114 1.266-1.525.543-.415 1.186-.73 1.913-.939.735-.21 1.539-.317 2.39-.317 1.118 0 2.124.181 2.99.537.863.356 1.599.846 2.185 1.456.589.612 1.043 1.338 1.352 2.159.31.825.467 1.712.467 2.637 0 .784-.157 1.486-.466 2.085-.31.603-.74 1.116-1.278 1.527-.543.415-1.193.73-1.935.938-.749.211-1.569.318-2.435.318" fill="#37b63f"/></g><g transform="translate(548.3582 671.7034)"><path d="m0 0-2.232-3.9-.625 3.9h-.389-2.529l.29 1.674h-1.754l-.289-1.674h-.999l-.267-1.496h1.023l-.455-2.45c-.026-.117-.045-.245-.058-.385-.012-.136-.018-.262-.018-.379 0-.445.148-.811.439-1.086.294-.277.759-.412 1.423-.412.145 0 .306.015.481.045.178.03.334.072.464.124l.101.04.112 1.415-.238-.062c-.075-.019-.156-.035-.241-.047-.251-.037-.521-.019-.663.072-.026.017-.106.068-.106.282 0 .09.011.191.033.301l.479 2.542h1.612l.906-4.592h1.762l3.642 6.088z" fill="#fff"/></g></g></svg>

<?xml version="1.0" encoding="UTF-8" standalone="no"?>
<!-- Created with Inkscape (http://www.inkscape.org/) -->

<svg
   xmlns:dc="http://purl.org/dc/elements/1.1/"
   xmlns:cc="http://creativecommons.org/ns#"
   xmlns:rdf="http://www.w3.org/1999/02/22-rdf-syntax-ns#"
   xmlns:svg="http://www.w3.org/2000/svg"
   xmlns="http://www.w3.org/2000/svg"
   xmlns:sodipodi="http://sodipodi.sourceforge.net/DTD/sodipodi-0.dtd"
   xmlns:inkscape="http://www.inkscape.org/namespaces/inkscape"
   width="20.389603mm"
   height="6.0166249mm"
   viewBox="0 0 72.246624 21.31875"
   id="svg310038"
   version="1.1"
   inkscape:version="0.91 r13725"
   sodipodi:docname="Food TV.svg">
  <defs
     id="defs310040">
    <clipPath
       clipPathUnits="userSpaceOnUse"
       id="clipPath71528">
      <path
         d="m 480.614,659.622 82.8,0 0,24.803 -82.8,0 0,-24.803 z"
         id="path71530"
         inkscape:connector-curvature="0" />
    </clipPath>
  </defs>
  <sodipodi:namedview
     id="base"
     pagecolor="#ffffff"
     bordercolor="#666666"
     borderopacity="1.0"
     inkscape:pageopacity="0.0"
     inkscape:pageshadow="2"
     inkscape:zoom="0.35"
     inkscape:cx="-447.44812"
     inkscape:cy="-123.62638"
     inkscape:document-units="px"
     inkscape:current-layer="layer1"
     showgrid="false"
     fit-margin-top="0"
     fit-margin-left="0"
     fit-margin-right="0"
     fit-margin-bottom="0"
     inkscape:window-width="1920"
     inkscape:window-height="1017"
     inkscape:window-x="-8"
     inkscape:window-y="-8"
     inkscape:window-maximized="1" />
  <metadata
     id="metadata310043">
    <rdf:RDF>
      <cc:Work
         rdf:about="">
        <dc:format>image/svg+xml</dc:format>
        <dc:type
           rdf:resource="http://purl.org/dc/dcmitype/StillImage" />
        <dc:title></dc:title>
      </cc:Work>
    </rdf:RDF>
  </metadata>
  <g
     inkscape:label="Layer 1"
     inkscape:groupmode="layer"
     id="layer1"
     transform="translate(-395.30526,-387.41708)">
    <g
       transform="matrix(1.25,0,0,-1.25,-221.08924,1238.1062)"
       id="g71524">
      <g
         id="g71526"
         clip-path="url(#clipPath71528)">
        <g
           id="g71532"
           transform="translate(493.1156,671.9023)">
          <path
             d="M 0,0 1.668,0 C 1.746,0 1.82,-0.034 1.869,-0.093 1.92,-0.152 1.94,-0.231 1.927,-0.307 L 0.556,-8.406 c 4.344,0.049 4.766,2.085 4.77,2.106 l 0.99,6.084 C 6.338,-0.091 6.447,0 6.575,0 l 2.156,0 0.525,2.994 -2.131,0 C 7.048,2.994 6.975,3.027 6.924,3.086 6.874,3.145 6.853,3.222 6.866,3.298 L 6.91,3.56 c 0.095,0.504 0.257,0.923 0.482,1.25 0.257,0.372 0.693,0.561 1.296,0.561 0.193,0 0.386,-0.02 0.572,-0.06 C 9.323,5.297 9.383,5.282 9.441,5.266 l 0.68,3.149 C 9.902,8.485 9.639,8.538 9.338,8.575 8.925,8.624 8.551,8.649 8.226,8.649 7.224,8.649 6.376,8.512 5.706,8.243 5.042,7.975 4.492,7.608 4.074,7.151 3.651,6.69 3.32,6.149 3.091,5.543 2.856,4.918 2.671,4.25 2.543,3.557 L 2.477,3.207 C 2.453,3.083 2.344,2.994 2.218,2.994 l -1.693,0 L 0,0 Z"
             style="fill:#221b21;fill-opacity:1;fill-rule:nonzero;stroke:none"
             id="path71534"
             inkscape:connector-curvature="0" />
        </g>
        <g
           id="g71536"
           transform="translate(530.9932,667.0455)">
          <path
             d="m 0,0 c -0.646,0 -1.151,0.19 -1.502,0.564 -0.346,0.368 -0.521,0.824 -0.521,1.356 0,0.378 0.056,0.734 0.168,1.056 0.112,0.327 0.28,0.623 0.498,0.881 0.223,0.261 0.493,0.467 0.805,0.614 0.312,0.147 0.668,0.221 1.058,0.221 0.63,0 1.127,-0.185 1.478,-0.55 C 2.331,3.78 2.508,3.319 2.508,2.772 2.508,2.409 2.447,2.056 2.327,1.724 2.207,1.389 2.035,1.09 1.819,0.835 1.598,0.575 1.332,0.369 1.028,0.222 0.722,0.075 0.376,0 0,0 M -0.11,8.079 C -0.99,8.079 -1.817,7.897 -2.571,7.537 -3.328,7.175 -3.988,6.682 -4.534,6.071 -5.083,5.457 -5.518,4.724 -5.827,3.893 -6.137,3.06 -6.294,2.161 -6.294,1.222 c 0,-0.653 0.095,-1.272 0.283,-1.84 0.186,-0.56 0.468,-1.055 0.839,-1.47 0.368,-0.414 0.831,-0.744 1.373,-0.983 0.543,-0.239 1.185,-0.36 1.907,-0.36 0.779,0 1.463,0.135 2.033,0.402 0.568,0.265 1.012,0.602 1.323,1.003 0.05,0.065 0.126,0.102 0.208,0.102 l 0.044,0 c 0.092,0 0.176,-0.046 0.224,-0.123 0.005,-0.008 0.763,-1.093 3.758,-1.1 L 8.533,12.839 C 4.171,12.822 3.793,10.755 3.779,10.667 L 3.142,7.029 C 3.12,6.904 3.01,6.813 2.883,6.813 l -0.045,0 C 2.752,6.813 2.672,6.855 2.623,6.925 2.508,7.089 2.35,7.245 2.155,7.387 1.954,7.534 1.728,7.659 1.483,7.761 1.237,7.863 0.972,7.942 0.696,7.997 0.421,8.052 0.149,8.079 -0.11,8.079"
             style="fill:#221b21;fill-opacity:1;fill-rule:nonzero;stroke:none"
             id="path71538"
             inkscape:connector-curvature="0" />
        </g>
        <g
           id="g71540"
           transform="translate(518.7696,667.0455)">
          <path
             d="m 0,0 c -0.631,0 -1.125,0.186 -1.469,0.553 -0.338,0.36 -0.51,0.82 -0.51,1.367 0,0.363 0.057,0.714 0.168,1.044 0.112,0.336 0.281,0.634 0.502,0.886 0.219,0.249 0.483,0.453 0.782,0.606 0.308,0.157 0.656,0.236 1.033,0.236 0.647,0 1.149,-0.19 1.493,-0.565 C 2.337,3.758 2.508,3.302 2.508,2.772 2.508,2.396 2.451,2.041 2.34,1.716 2.227,1.39 2.064,1.095 1.854,0.839 1.64,0.577 1.372,0.369 1.059,0.222 0.745,0.074 0.389,0 0,0 M 0.661,8.167 C -0.443,8.167 -1.434,7.986 -2.285,7.63 -3.135,7.275 -3.86,6.784 -4.441,6.174 -5.023,5.561 -5.475,4.834 -5.783,4.013 -6.093,3.188 -6.25,2.299 -6.25,1.374 c 0,-0.785 0.153,-1.488 0.456,-2.088 0.303,-0.601 0.729,-1.115 1.267,-1.526 0.544,-0.415 1.188,-0.73 1.915,-0.939 0.736,-0.21 1.54,-0.317 2.392,-0.317 1.119,0 2.125,0.18 2.991,0.537 0.865,0.356 1.601,0.846 2.188,1.456 0.589,0.613 1.044,1.339 1.352,2.161 0.311,0.825 0.468,1.713 0.468,2.638 0,0.784 -0.157,1.486 -0.467,2.087 C 6.002,5.985 5.571,6.499 5.033,6.91 4.49,7.325 3.84,7.64 3.098,7.849 2.347,8.059 1.527,8.167 0.661,8.167"
             style="fill:#221b21;fill-opacity:1;fill-rule:nonzero;stroke:none"
             id="path71542"
             inkscape:connector-curvature="0" />
        </g>
        <g
           id="g71544"
           transform="translate(506.4733,667.0455)">
          <path
             d="m 0,0 c -0.631,0 -1.126,0.186 -1.469,0.553 -0.338,0.361 -0.51,0.821 -0.51,1.367 0,0.361 0.056,0.713 0.167,1.044 0.113,0.336 0.282,0.634 0.503,0.886 0.219,0.249 0.482,0.453 0.782,0.606 0.308,0.157 0.655,0.236 1.033,0.236 0.646,0 1.148,-0.19 1.493,-0.565 C 2.336,3.758 2.508,3.302 2.508,2.772 2.508,2.395 2.451,2.04 2.339,1.716 2.227,1.39 2.064,1.094 1.854,0.838 1.64,0.577 1.372,0.369 1.059,0.222 0.746,0.074 0.389,0 0,0 M 0.66,8.167 C -0.443,8.167 -1.434,7.986 -2.285,7.63 -3.135,7.275 -3.86,6.785 -4.441,6.174 -5.023,5.562 -5.474,4.835 -5.783,4.013 -6.093,3.188 -6.25,2.3 -6.25,1.374 c 0,-0.785 0.153,-1.488 0.456,-2.088 0.303,-0.602 0.729,-1.115 1.267,-1.526 0.544,-0.415 1.188,-0.73 1.915,-0.939 0.735,-0.21 1.54,-0.317 2.392,-0.317 1.118,0 2.125,0.18 2.991,0.537 0.865,0.356 1.601,0.846 2.188,1.456 0.589,0.613 1.044,1.339 1.352,2.161 0.31,0.825 0.468,1.713 0.468,2.638 0,0.784 -0.157,1.486 -0.467,2.087 C 6.002,5.985 5.571,6.499 5.033,6.91 4.49,7.325 3.839,7.641 3.097,7.849 2.347,8.059 1.527,8.167 0.66,8.167"
             style="fill:#221b21;fill-opacity:1;fill-rule:nonzero;stroke:none"
             id="path71546"
             inkscape:connector-curvature="0" />
        </g>
        <g
           id="g71548"
           transform="translate(544.7989,675.2075)">
          <path
             d="m 0,0 c -1.102,0 -2.093,-0.18 -2.944,-0.536 -0.849,-0.355 -1.573,-0.845 -2.153,-1.456 -0.582,-0.612 -1.033,-1.339 -1.342,-2.16 -0.31,-0.825 -0.467,-1.712 -0.467,-2.637 0,-0.785 0.154,-1.487 0.457,-2.087 0.302,-0.601 0.728,-1.114 1.266,-1.525 0.543,-0.415 1.186,-0.73 1.913,-0.939 0.735,-0.21 1.539,-0.317 2.39,-0.317 1.118,0 2.124,0.181 2.99,0.537 0.863,0.356 1.599,0.846 2.185,1.456 0.589,0.612 1.043,1.338 1.352,2.159 0.31,0.825 0.467,1.712 0.467,2.637 0,0.784 -0.157,1.486 -0.466,2.085 -0.31,0.603 -0.74,1.116 -1.278,1.527 -0.543,0.415 -1.193,0.73 -1.935,0.938 C 1.686,-0.107 0.866,0 0,0"
             style="fill:#37b63f;fill-opacity:1;fill-rule:nonzero;stroke:none"
             id="path71550"
             inkscape:connector-curvature="0" />
        </g>
        <g
           id="g71552"
           transform="translate(548.3582,671.7034)">
          <path
             d="m 0,0 -2.232,-3.9 -0.625,3.9 -0.389,0 -2.529,0 0.29,1.674 -1.754,0 L -7.528,0 l -0.999,0 -0.267,-1.496 1.023,0 -0.455,-2.45 c -0.026,-0.117 -0.045,-0.245 -0.058,-0.385 -0.012,-0.136 -0.018,-0.262 -0.018,-0.379 0,-0.445 0.148,-0.811 0.439,-1.086 0.294,-0.277 0.759,-0.412 1.423,-0.412 0.145,0 0.306,0.015 0.481,0.045 0.178,0.03 0.334,0.072 0.464,0.124 l 0.101,0.04 0.112,1.415 -0.238,-0.062 c -0.075,-0.019 -0.156,-0.035 -0.241,-0.047 -0.251,-0.037 -0.521,-0.019 -0.663,0.072 -0.026,0.017 -0.106,0.068 -0.106,0.282 0,0.09 0.011,0.191 0.033,0.301 l 0.479,2.542 1.612,0 0.906,-4.592 1.762,0 L 1.904,0 0,0 Z"
             style="fill:#ffffff;fill-opacity:1;fill-rule:nonzero;stroke:none"
             id="path71554"
             inkscape:connector-curvature="0" />
        </g>
      </g>
    </g>
  </g>
</svg>
